public/icons/map-route-icon.svg

<svg width="64" height="64" viewBox="0 0 64 64" fill="none" xmlns="http://www.w3.org/2000/svg">
<path fill-rule="evenodd" clip-rule="evenodd" d="M57.4019 8.39827C58.1881 8.88415 58.6666 9.74246 58.6666 10.6667V45.3333C58.6666 46.3434 58.096 47.2668 57.1925 47.7185L41.1925 55.7185C40.4418 56.0938 39.5581 56.0938 38.8074 55.7185L24 48.3148L9.19255 55.7185C8.36591 56.1318 7.38421 56.0876 6.59803 55.6017C5.81185 55.1159 5.33331 54.2575 5.33331 53.3333V18.6667C5.33331 17.6566 5.90399 16.7332 6.80741 16.2815L22.8074 8.28153C23.5581 7.90616 24.4418 7.90616 25.1925 8.28153L40 15.6852L54.8074 8.28153C55.634 7.86821 56.6157 7.91238 57.4019 8.39827ZM10.6666 20.3148V49.0186L22.8074 42.9482C23.5581 42.5728 24.4418 42.5728 25.1925 42.9482L40 50.3519L53.3333 43.6852V14.9814L41.1925 21.0518C40.4418 21.4272 39.5581 21.4272 38.8074 21.0518L24 13.6481L10.6666 20.3148ZM32.781 27.4477C33.8224 26.4063 35.5109 26.4063 36.5523 27.4477L40 30.8954L43.4477 27.4477C44.4891 26.4063 46.1775 26.4063 47.2189 27.4477C48.2603 28.4891 48.2603 30.1776 47.2189 31.219L43.7712 34.6667L47.2189 38.1144C48.2603 39.1558 48.2603 40.8442 47.2189 41.8856C46.1775 42.927 44.4891 42.927 43.4477 41.8856L40 38.4379L36.5523 41.8856C35.5109 42.927 33.8224 42.927 32.781 41.8856C31.7396 40.8442 31.7396 39.1558 32.781 38.1144L36.2287 34.6667L32.781 31.219C31.7396 30.1776 31.7396 28.4891 32.781 27.4477ZM24 29.3333C25.4727 29.3333 26.6666 30.5272 26.6666 32V32.0267C26.6666 33.4994 25.4727 34.6933 24 34.6933C22.5272 34.6933 21.3333 33.4994 21.3333 32.0267V32C21.3333 30.5272 22.5272 29.3333 24 29.3333ZM16 32C17.4727 32 18.6666 33.1939 18.6666 34.6667V34.6933C18.6666 36.1661 17.4727 37.36 16 37.36C14.5272 37.36 13.3333 36.1661 13.3333 34.6933V34.6667C13.3333 33.1939 14.5272 32 16 32Z" fill="#132136"/>
</svg>

<svg xmlns="http://www.w3.org/2000/svg" width="64" height="64" fill="none"><path fill="#132136" fill-rule="evenodd" d="M57.402 8.398a2.67 2.67 0 0 1 1.265 2.269v34.666c0 1.01-.571 1.934-1.474 2.386l-16 8a2.67 2.67 0 0 1-2.386 0L24 48.314 9.193 55.719a2.667 2.667 0 0 1-3.86-2.386V18.667c0-1.01.571-1.934 1.474-2.386l16-8a2.67 2.67 0 0 1 2.386 0L40 15.686l14.807-7.403a2.67 2.67 0 0 1 2.595.116M10.667 20.315v28.704l12.14-6.07a2.67 2.67 0 0 1 2.386 0L40 50.351l13.333-6.667V14.981l-12.14 6.07a2.67 2.67 0 0 1-2.386 0L24 13.649zm22.114 7.133a2.667 2.667 0 0 1 3.771 0L40 30.895l3.448-3.447a2.667 2.667 0 1 1 3.77 3.771l-3.447 3.448 3.448 3.447a2.667 2.667 0 1 1-3.771 3.772L40 38.438l-3.448 3.448a2.667 2.667 0 0 1-3.771-3.772l3.448-3.447-3.448-3.448a2.667 2.667 0 0 1 0-3.771M24 29.333A2.667 2.667 0 0 1 26.667 32v.027a2.667 2.667 0 0 1-5.334 0V32A2.667 2.667 0 0 1 24 29.333M16 32a2.667 2.667 0 0 1 2.667 2.667v.026a2.667 2.667 0 1 1-5.334 0v-.026A2.667 2.667 0 0 1 16 32" clip-rule="evenodd"/></svg>
